assets/flowers/june_right.svg

<?xml version="1.0" encoding="UTF-8" standalone="no"?>
<svg
   viewBox="0 0 273 748"
   width="273"
   height="748"
   version="1.1"
   id="svg17"
   sodipodi:docname="june_right.svg"
   inkscape:version="1.4.2 (f4327f4, 2025-05-13)"
   xmlns:inkscape="http://www.inkscape.org/namespaces/inkscape"
   xmlns:sodipodi="http://sodipodi.sourceforge.net/DTD/sodipodi-0.dtd"
   xmlns="http://www.w3.org/2000/svg"
   xmlns:svg="http://www.w3.org/2000/svg">
  <defs
     id="defs17" />
  <sodipodi:namedview
     id="namedview17"
     pagecolor="#ffffff"
     bordercolor="#000000"
     borderopacity="0.25"
     inkscape:showpageshadow="2"
     inkscape:pageopacity="0.0"
     inkscape:pagecheckerboard="0"
     inkscape:deskcolor="#d1d1d1"
     inkscape:zoom="0.5394385"
     inkscape:cx="251.18711"
     inkscape:cy="416.17348"
     inkscape:window-width="1920"
     inkscape:window-height="1009"
     inkscape:window-x="1912"
     inkscape:window-y="-8"
     inkscape:window-maximized="1"
     inkscape:current-layer="svg17" />
  <path
     d="m 75,716 c 2.67,-15 9.17,-59.67 16,-90 6.83,-30.33 19.74459,-75.34351 25,-92 2.62184,-8.30967 3.17696,-10.29008 4.759,-15.52457 1.17396,-3.88425 2.75647,-9.21163 3.19421,-10.51016 0.4425,-1.31263 2.30764,15.72216 3.1199,22.15059 C 128.7562,545.08036 131,578.83 135,613 c 4,34.17 14.17,101.67 17,122"
     fill="none"
     stroke="#000000"
     stroke-width="4.00"
     stroke-linecap="round"
     stroke-linejoin="round"
     id="path1"
     style="stroke-width:4;stroke-dasharray:none"
     sodipodi:nodetypes="cssssssc" />
  <path
     d="M158.00,34.00 C156.67,32.33 154.00,26.83 150.00,24.00 C146.00,21.17 136.00,19.17 134.00,17.00 C132.00,14.83 134.33,12.33 138.00,11.00 C141.67,9.67 151.17,8.67 156.00,9.00 C160.83,9.33 163.00,10.17 167.00,13.00 C171.00,15.83 177.83,21.83 180.00,26.00 C182.17,30.17 180.00,36.00 180.00,38.00"
     fill="none"
     stroke="black"
     stroke-width="4.47"
     stroke-linecap="round"
     stroke-linejoin="round"
     id="path2"
     style="stroke-width:4;stroke-dasharray:none" />
  <path
     d="M134.00,17.00 C133.00,17.17 130.33,16.83 128.00,18.00 C125.67,19.17 122.33,23.00 120.00,24.00 C117.67,25.00 117.00,21.83 114.00,24.00 C111.00,26.17 106.33,30.83 102.00,37.00 C97.67,43.17 90.00,54.33 88.00,61.00 C86.00,67.67 89.00,72.67 90.00,77.00 C91.00,81.33 93.67,85.33 94.00,87.00 C94.33,88.67 92.50,86.00 92.00,87.00 C91.50,88.00 90.17,89.00 91.00,93.00 C91.83,97.00 91.67,103.17 97.00,111.00 C102.33,118.83 116.00,134.00 123.00,140.00 C130.00,146.00 135.33,144.67 139.00,147.00 C142.67,149.33 144.00,152.83 145.00,154.00"
     fill="none"
     stroke="black"
     stroke-width="4.47"
     stroke-linecap="round"
     stroke-linejoin="round"
     id="path3"
     style="stroke-width:4;stroke-dasharray:none" />
  <path
     d="M114.00,23.00 C112.83,21.67 110.00,16.67 107.00,15.00 C104.00,13.33 100.33,11.33 96.00,13.00 C91.67,14.67 85.83,19.67 81.00,25.00 C76.17,30.33 70.33,38.83 67.00,45.00 C63.67,51.17 61.83,57.83 61.00,62.00 C60.17,66.17 61.00,67.33 62.00,70.00 C63.00,72.67 67.50,71.50 67.00,78.00 C66.50,84.50 59.50,101.00 59.00,109.00 C58.50,117.00 61.83,121.33 64.00,126.00 C66.17,130.67 69.00,134.17 72.00,137.00 C75.00,139.83 75.33,140.50 82.00,143.00 C88.67,145.50 106.50,150.17 112.00,152.00 C117.50,153.83 114.50,153.17 115.00,154.00 C115.50,154.83 113.67,156.50 115.00,157.00 C116.33,157.50 121.67,157.00 123.00,157.00"
     fill="none"
     stroke="black"
     stroke-width="4.00"
     stroke-linecap="round"
     stroke-linejoin="round"
     id="path4"
     style="stroke-width:4;stroke-dasharray:none" />
  <path
     d="M118.00,24.00 C118.33,24.00 119.83,22.83 120.00,24.00 C120.17,25.17 120.17,26.33 119.00,31.00 C117.83,35.67 114.00,46.00 113.00,52.00 C112.00,58.00 113.33,64.50 113.00,67.00 C112.67,69.50 111.33,67.00 111.00,67.00"
     fill="none"
     stroke="black"
     stroke-width="5.06"
     stroke-linecap="round"
     stroke-linejoin="round"
     id="path5"
     style="stroke-width:4;stroke-dasharray:none" />
  <path
     d="M136.00,73.00 C134.17,70.83 127.00,63.00 125.00,60.00 C123.00,57.00 123.67,57.33 124.00,55.00 C124.33,52.67 125.17,48.67 127.00,46.00 C128.83,43.33 129.67,40.83 135.00,39.00 C140.33,37.17 152.50,33.33 159.00,35.00 C165.50,36.67 171.50,45.67 174.00,49.00 C176.50,52.33 172.00,51.83 174.00,55.00 C176.00,58.17 183.17,62.83 186.00,68.00 C188.83,73.17 189.33,83.33 191.00,86.00 C192.67,88.67 194.33,85.50 196.00,84.00 C197.67,82.50 199.33,78.33 201.00,77.00 C202.67,75.67 205.17,76.17 206.00,76.00"
     fill="none"
     stroke="black"
     stroke-width="4.47"
     stroke-linecap="round"
     stroke-linejoin="round"
     id="path6"
     style="stroke-width:4;stroke-dasharray:none" />
  <path
     d="M173.00,50.00 C173.67,49.50 175.67,49.17 177.00,47.00 C178.33,44.83 178.50,38.00 181.00,37.00 C183.50,36.00 188.83,39.00 192.00,41.00 C195.17,43.00 198.00,46.33 200.00,49.00 C202.00,51.67 203.00,54.17 204.00,57.00 C205.00,59.83 205.83,62.83 206.00,66.00 C206.17,69.17 203.33,71.67 205.00,76.00 C206.67,80.33 214.17,88.17 216.00,92.00 C217.83,95.83 216.67,96.33 216.00,99.00 C215.33,101.67 214.50,105.00 212.00,108.00 C209.50,111.00 204.33,115.50 201.00,117.00 C197.67,118.50 193.50,117.00 192.00,117.00"
     fill="none"
     stroke="black"
     stroke-width="4.47"
     stroke-linecap="round"
     stroke-linejoin="round"
     id="path7"
     style="stroke-width:4;stroke-dasharray:none" />
  <path
     d="M89.00,62.00 C88.17,61.83 85.83,60.67 84.00,61.00 C82.17,61.33 80.83,61.33 78.00,64.00 C75.17,66.67 68.83,74.83 67.00,77.00"
     fill="none"
     stroke="black"
     stroke-width="4.47"
     stroke-linecap="round"
     stroke-linejoin="round"
     id="path8"
     style="stroke-width:4;stroke-dasharray:none" />
  <path
     d="M94.00,87.00 C97.67,90.67 111.83,105.83 116.00,109.00 C120.17,112.17 118.50,107.83 119.00,106.00 C119.50,104.17 120.83,102.67 119.00,98.00 C117.17,93.33 110.00,82.50 108.00,78.00 C106.00,73.50 106.83,72.67 107.00,71.00 C107.17,69.33 108.00,68.67 109.00,68.00 C110.00,67.33 110.00,66.00 113.00,67.00 C116.00,68.00 123.33,72.83 127.00,74.00 C130.67,75.17 133.50,74.33 135.00,74.00 C136.50,73.67 134.50,71.83 136.00,72.00 C137.50,72.17 142.17,75.17 144.00,75.00 C145.83,74.83 145.17,71.67 147.00,71.00 C148.83,70.33 151.67,69.83 155.00,71.00 C158.33,72.17 164.83,75.17 167.00,78.00 C169.17,80.83 168.17,85.33 168.00,88.00 C167.83,90.67 167.67,91.83 166.00,94.00 C164.33,96.17 161.83,99.17 158.00,101.00 C154.17,102.83 146.50,103.33 143.00,105.00 C139.50,106.67 138.50,108.17 137.00,111.00 C135.50,113.83 136.17,120.83 134.00,122.00 C131.83,123.17 126.83,119.83 124.00,118.00 C121.17,116.17 118.17,112.67 117.00,111.00 C115.83,109.33 117.00,108.50 117.00,108.00"
     fill="none"
     stroke="black"
     stroke-width="4.47"
     stroke-linecap="round"
     stroke-linejoin="round"
     id="path9"
     style="stroke-width:4;stroke-dasharray:none" />
  <path
     d="M192.00,87.00 C191.33,90.83 189.00,106.17 188.00,110.00 C187.00,113.83 186.33,110.00 186.00,110.00"
     fill="none"
     stroke="black"
     stroke-width="5.66"
     stroke-linecap="round"
     stroke-linejoin="round"
     id="path10"
     style="stroke-width:4;stroke-dasharray:none" />
  <path
     d="M134.00,122.00 C134.50,122.50 134.50,124.50 137.00,125.00 C139.50,125.50 144.17,126.67 149.00,125.00 C153.83,123.33 160.83,117.50 166.00,115.00 C171.17,112.50 176.33,110.83 180.00,110.00 C183.67,109.17 185.83,108.67 188.00,110.00 C190.17,111.33 193.67,112.83 193.00,118.00 C192.33,123.17 187.00,135.50 184.00,141.00 C181.00,146.50 177.50,148.83 175.00,151.00 C172.50,153.17 174.00,153.50 169.00,154.00 C164.00,154.50 149.67,153.33 145.00,154.00 C140.33,154.67 144.33,157.67 141.00,158.00 C137.67,158.33 128.17,156.00 125.00,156.00 C121.83,156.00 122.17,156.33 122.00,158.00 C121.83,159.67 124.17,164.50 124.00,166.00 C123.83,167.50 118.00,166.67 121.00,167.00 C124.00,167.33 138.83,169.50 142.00,168.00 C145.17,166.50 140.33,159.67 140.00,158.00"
     fill="none"
     stroke="black"
     stroke-width="4.47"
     stroke-linecap="round"
     stroke-linejoin="round"
     id="path11"
     style="stroke-width:4;stroke-dasharray:none" />
  <path
     d="M115.00,157.00 C114.17,157.67 111.33,159.17 110.00,161.00 C108.67,162.83 105.00,167.00 107.00,168.00 C109.00,169.00 119.83,155.00 122.00,167.00 C124.17,179.00 120.67,227.50 120.00,240.00 C119.33,252.50 119.00,241.83 118.00,242.00 C117.00,242.17 116.50,242.17 114.00,241.00 C111.50,239.83 105.00,236.67 103.00,235.00 C101.00,233.33 104.00,233.17 102.00,231.00 C100.00,228.83 97.83,222.00 91.00,222.00 C84.17,222.00 65.33,228.50 61.00,231.00 C56.67,233.50 63.33,235.67 65.00,237.00 C66.67,238.33 67.67,238.67 71.00,239.00 C74.33,239.33 79.83,239.50 85.00,239.00 C90.17,238.50 99.00,236.83 102.00,236.00 C105.00,235.17 102.83,234.33 103.00,234.00"
     fill="none"
     stroke="black"
     stroke-width="4.47"
     stroke-linecap="round"
     stroke-linejoin="round"
     id="path12"
     style="stroke-width:4;stroke-dasharray:none" />
  <path
     d="M59.00,176.00 C59.33,176.00 61.33,175.50 61.00,176.00 C60.67,176.50 57.33,175.33 57.00,179.00 C56.67,182.67 56.17,192.67 59.00,198.00 C61.83,203.33 70.83,208.83 74.00,211.00 C77.17,213.17 77.50,213.00 78.00,211.00 C78.50,209.00 79.00,204.33 77.00,199.00 C75.00,193.67 68.67,182.83 66.00,179.00 C63.33,175.17 61.83,176.50 61.00,176.00"
     fill="none"
     stroke="black"
     stroke-width="4.47"
     stroke-linecap="round"
     stroke-linejoin="round"
     id="path13"
     style="stroke-width:4;stroke-dasharray:none" />
  <path
     d="M79.00,210.00 C79.00,210.50 77.67,211.17 79.00,213.00 C80.33,214.83 85.67,219.67 87.00,221.00"
     fill="none"
     stroke="black"
     stroke-width="6.00"
     stroke-linecap="round"
     stroke-linejoin="round"
     id="path14"
     style="stroke-width:4;stroke-dasharray:none" />
  <path
     d="m 119,241 c 0.5,33.83 2.76105,162.82214 3,203 0.17459,29.35573 0.18074,32.63238 0.36147,40.29394 0.17074,7.23738 2.26555,23.99413 1.61832,26.21307 -0.47666,1.6342 2.65205,-11.05697 8.32205,-26.22697 C 137.97184,469.11004 154.17,416.83 162,396 c 7.83,-20.83 16.5,-33.83 19,-41 -2.27637,-0.89393 -9.61318,-10.77101 -13,-19 -1.17,-3.17 2,-0.33 2,-2 0,-1.67 -1,-6 -2,-8 -1,-2 -2.67,-3.33 -4,-4 -1.33,-0.67 -3.33,0.33 -4,0 -0.67,-0.33 -0.17,-3.5 0,-2 0.17,1.5 0,8.33 1,11 1,2.67 3.67,4.33 5,5 1.33,0.67 2.5,-1.17 3,-1 0.5,0.17 0,1.67 0,2"
     fill="none"
     stroke="#000000"
     stroke-width="4.00"
     stroke-linecap="round"
     stroke-linejoin="round"
     id="path15"
     style="stroke-width:4;stroke-dasharray:none"
     sodipodi:nodetypes="csssssssssssssssc" />
  <path
     d="M204.00,322.00 C204.00,319.00 203.00,309.67 204.00,304.00 C205.00,298.33 206.67,292.83 210.00,288.00 C213.33,283.17 218.67,278.00 224.00,275.00 C229.33,272.00 238.67,270.50 242.00,270.00 C245.33,269.50 243.83,269.67 244.00,272.00 C244.17,274.33 244.50,278.83 243.00,284.00 C241.50,289.17 239.00,297.50 235.00,303.00 C231.00,308.50 223.00,314.00 219.00,317.00 C215.00,320.00 213.33,320.33 211.00,321.00 C208.67,321.67 210.00,315.33 205.00,321.00 C200.00,326.67 185.00,349.33 181.00,355.00"
     fill="none"
     stroke="black"
     stroke-width="4.24"
     stroke-linecap="round"
     stroke-linejoin="round"
     id="path16"
     style="stroke-width:4;stroke-dasharray:none" />
</svg>

<?xml version="1.0" encoding="UTF-8"?>
<svg xmlns="http://www.w3.org/2000/svg" viewBox="0 0 273 748" width="273" height="748">
  <path d="M75.00,716.00 C77.67,701.00 84.17,656.33 91.00,626.00 C97.83,595.67 111.33,550.83 116.00,534.00 C120.67,517.17 117.67,527.33 119.00,525.00 C120.33,522.67 122.67,520.33 124.00,520.00 C125.33,519.67 126.33,521.33 127.00,523.00 C127.67,524.67 126.67,515.00 128.00,530.00 C129.33,545.00 131.00,578.83 135.00,613.00 C139.00,647.17 149.17,714.67 152.00,735.00" fill="none" stroke="black" stroke-width="4.00" stroke-linecap="round" stroke-linejoin="round"/>
  <path d="M158.00,34.00 C156.67,32.33 154.00,26.83 150.00,24.00 C146.00,21.17 136.00,19.17 134.00,17.00 C132.00,14.83 134.33,12.33 138.00,11.00 C141.67,9.67 151.17,8.67 156.00,9.00 C160.83,9.33 163.00,10.17 167.00,13.00 C171.00,15.83 177.83,21.83 180.00,26.00 C182.17,30.17 180.00,36.00 180.00,38.00" fill="none" stroke="black" stroke-width="4.47" stroke-linecap="round" stroke-linejoin="round"/>
  <path d="M134.00,17.00 C133.00,17.17 130.33,16.83 128.00,18.00 C125.67,19.17 122.33,23.00 120.00,24.00 C117.67,25.00 117.00,21.83 114.00,24.00 C111.00,26.17 106.33,30.83 102.00,37.00 C97.67,43.17 90.00,54.33 88.00,61.00 C86.00,67.67 89.00,72.67 90.00,77.00 C91.00,81.33 93.67,85.33 94.00,87.00 C94.33,88.67 92.50,86.00 92.00,87.00 C91.50,88.00 90.17,89.00 91.00,93.00 C91.83,97.00 91.67,103.17 97.00,111.00 C102.33,118.83 116.00,134.00 123.00,140.00 C130.00,146.00 135.33,144.67 139.00,147.00 C142.67,149.33 144.00,152.83 145.00,154.00" fill="none" stroke="black" stroke-width="4.47" stroke-linecap="round" stroke-linejoin="round"/>
  <path d="M114.00,23.00 C112.83,21.67 110.00,16.67 107.00,15.00 C104.00,13.33 100.33,11.33 96.00,13.00 C91.67,14.67 85.83,19.67 81.00,25.00 C76.17,30.33 70.33,38.83 67.00,45.00 C63.67,51.17 61.83,57.83 61.00,62.00 C60.17,66.17 61.00,67.33 62.00,70.00 C63.00,72.67 67.50,71.50 67.00,78.00 C66.50,84.50 59.50,101.00 59.00,109.00 C58.50,117.00 61.83,121.33 64.00,126.00 C66.17,130.67 69.00,134.17 72.00,137.00 C75.00,139.83 75.33,140.50 82.00,143.00 C88.67,145.50 106.50,150.17 112.00,152.00 C117.50,153.83 114.50,153.17 115.00,154.00 C115.50,154.83 113.67,156.50 115.00,157.00 C116.33,157.50 121.67,157.00 123.00,157.00" fill="none" stroke="black" stroke-width="4.00" stroke-linecap="round" stroke-linejoin="round"/>
  <path d="M118.00,24.00 C118.33,24.00 119.83,22.83 120.00,24.00 C120.17,25.17 120.17,26.33 119.00,31.00 C117.83,35.67 114.00,46.00 113.00,52.00 C112.00,58.00 113.33,64.50 113.00,67.00 C112.67,69.50 111.33,67.00 111.00,67.00" fill="none" stroke="black" stroke-width="5.06" stroke-linecap="round" stroke-linejoin="round"/>
  <path d="M136.00,73.00 C134.17,70.83 127.00,63.00 125.00,60.00 C123.00,57.00 123.67,57.33 124.00,55.00 C124.33,52.67 125.17,48.67 127.00,46.00 C128.83,43.33 129.67,40.83 135.00,39.00 C140.33,37.17 152.50,33.33 159.00,35.00 C165.50,36.67 171.50,45.67 174.00,49.00 C176.50,52.33 172.00,51.83 174.00,55.00 C176.00,58.17 183.17,62.83 186.00,68.00 C188.83,73.17 189.33,83.33 191.00,86.00 C192.67,88.67 194.33,85.50 196.00,84.00 C197.67,82.50 199.33,78.33 201.00,77.00 C202.67,75.67 205.17,76.17 206.00,76.00" fill="none" stroke="black" stroke-width="4.47" stroke-linecap="round" stroke-linejoin="round"/>
  <path d="M173.00,50.00 C173.67,49.50 175.67,49.17 177.00,47.00 C178.33,44.83 178.50,38.00 181.00,37.00 C183.50,36.00 188.83,39.00 192.00,41.00 C195.17,43.00 198.00,46.33 200.00,49.00 C202.00,51.67 203.00,54.17 204.00,57.00 C205.00,59.83 205.83,62.83 206.00,66.00 C206.17,69.17 203.33,71.67 205.00,76.00 C206.67,80.33 214.17,88.17 216.00,92.00 C217.83,95.83 216.67,96.33 216.00,99.00 C215.33,101.67 214.50,105.00 212.00,108.00 C209.50,111.00 204.33,115.50 201.00,117.00 C197.67,118.50 193.50,117.00 192.00,117.00" fill="none" stroke="black" stroke-width="4.47" stroke-linecap="round" stroke-linejoin="round"/>
  <path d="M89.00,62.00 C88.17,61.83 85.83,60.67 84.00,61.00 C82.17,61.33 80.83,61.33 78.00,64.00 C75.17,66.67 68.83,74.83 67.00,77.00" fill="none" stroke="black" stroke-width="4.47" stroke-linecap="round" stroke-linejoin="round"/>
  <path d="M94.00,87.00 C97.67,90.67 111.83,105.83 116.00,109.00 C120.17,112.17 118.50,107.83 119.00,106.00 C119.50,104.17 120.83,102.67 119.00,98.00 C117.17,93.33 110.00,82.50 108.00,78.00 C106.00,73.50 106.83,72.67 107.00,71.00 C107.17,69.33 108.00,68.67 109.00,68.00 C110.00,67.33 110.00,66.00 113.00,67.00 C116.00,68.00 123.33,72.83 127.00,74.00 C130.67,75.17 133.50,74.33 135.00,74.00 C136.50,73.67 134.50,71.83 136.00,72.00 C137.50,72.17 142.17,75.17 144.00,75.00 C145.83,74.83 145.17,71.67 147.00,71.00 C148.83,70.33 151.67,69.83 155.00,71.00 C158.33,72.17 164.83,75.17 167.00,78.00 C169.17,80.83 168.17,85.33 168.00,88.00 C167.83,90.67 167.67,91.83 166.00,94.00 C164.33,96.17 161.83,99.17 158.00,101.00 C154.17,102.83 146.50,103.33 143.00,105.00 C139.50,106.67 138.50,108.17 137.00,111.00 C135.50,113.83 136.17,120.83 134.00,122.00 C131.83,123.17 126.83,119.83 124.00,118.00 C121.17,116.17 118.17,112.67 117.00,111.00 C115.83,109.33 117.00,108.50 117.00,108.00" fill="none" stroke="black" stroke-width="4.47" stroke-linecap="round" stroke-linejoin="round"/>
  <path d="M192.00,87.00 C191.33,90.83 189.00,106.17 188.00,110.00 C187.00,113.83 186.33,110.00 186.00,110.00" fill="none" stroke="black" stroke-width="5.66" stroke-linecap="round" stroke-linejoin="round"/>
  <path d="M134.00,122.00 C134.50,122.50 134.50,124.50 137.00,125.00 C139.50,125.50 144.17,126.67 149.00,125.00 C153.83,123.33 160.83,117.50 166.00,115.00 C171.17,112.50 176.33,110.83 180.00,110.00 C183.67,109.17 185.83,108.67 188.00,110.00 C190.17,111.33 193.67,112.83 193.00,118.00 C192.33,123.17 187.00,135.50 184.00,141.00 C181.00,146.50 177.50,148.83 175.00,151.00 C172.50,153.17 174.00,153.50 169.00,154.00 C164.00,154.50 149.67,153.33 145.00,154.00 C140.33,154.67 144.33,157.67 141.00,158.00 C137.67,158.33 128.17,156.00 125.00,156.00 C121.83,156.00 122.17,156.33 122.00,158.00 C121.83,159.67 124.17,164.50 124.00,166.00 C123.83,167.50 118.00,166.67 121.00,167.00 C124.00,167.33 138.83,169.50 142.00,168.00 C145.17,166.50 140.33,159.67 140.00,158.00" fill="none" stroke="black" stroke-width="4.47" stroke-linecap="round" stroke-linejoin="round"/>
  <path d="M115.00,157.00 C114.17,157.67 111.33,159.17 110.00,161.00 C108.67,162.83 105.00,167.00 107.00,168.00 C109.00,169.00 119.83,155.00 122.00,167.00 C124.17,179.00 120.67,227.50 120.00,240.00 C119.33,252.50 119.00,241.83 118.00,242.00 C117.00,242.17 116.50,242.17 114.00,241.00 C111.50,239.83 105.00,236.67 103.00,235.00 C101.00,233.33 104.00,233.17 102.00,231.00 C100.00,228.83 97.83,222.00 91.00,222.00 C84.17,222.00 65.33,228.50 61.00,231.00 C56.67,233.50 63.33,235.67 65.00,237.00 C66.67,238.33 67.67,238.67 71.00,239.00 C74.33,239.33 79.83,239.50 85.00,239.00 C90.17,238.50 99.00,236.83 102.00,236.00 C105.00,235.17 102.83,234.33 103.00,234.00" fill="none" stroke="black" stroke-width="4.47" stroke-linecap="round" stroke-linejoin="round"/>
  <path d="M59.00,176.00 C59.33,176.00 61.33,175.50 61.00,176.00 C60.67,176.50 57.33,175.33 57.00,179.00 C56.67,182.67 56.17,192.67 59.00,198.00 C61.83,203.33 70.83,208.83 74.00,211.00 C77.17,213.17 77.50,213.00 78.00,211.00 C78.50,209.00 79.00,204.33 77.00,199.00 C75.00,193.67 68.67,182.83 66.00,179.00 C63.33,175.17 61.83,176.50 61.00,176.00" fill="none" stroke="black" stroke-width="4.47" stroke-linecap="round" stroke-linejoin="round"/>
  <path d="M79.00,210.00 C79.00,210.50 77.67,211.17 79.00,213.00 C80.33,214.83 85.67,219.67 87.00,221.00" fill="none" stroke="black" stroke-width="6.00" stroke-linecap="round" stroke-linejoin="round"/>
  <path d="M119.00,241.00 C119.50,274.83 121.17,403.83 122.00,444.00 C122.83,484.17 123.00,474.83 124.00,482.00 C125.00,489.17 126.33,487.33 128.00,487.00 C129.67,486.67 128.33,495.17 134.00,480.00 C139.67,464.83 154.17,416.83 162.00,396.00 C169.83,375.17 178.50,362.17 181.00,355.00 C183.50,347.83 179.17,356.17 177.00,353.00 C174.83,349.83 169.17,339.17 168.00,336.00 C166.83,332.83 170.00,335.67 170.00,334.00 C170.00,332.33 169.00,328.00 168.00,326.00 C167.00,324.00 165.33,322.67 164.00,322.00 C162.67,321.33 160.67,322.33 160.00,322.00 C159.33,321.67 159.83,318.50 160.00,320.00 C160.17,321.50 160.00,328.33 161.00,331.00 C162.00,333.67 164.67,335.33 166.00,336.00 C167.33,336.67 168.50,334.83 169.00,335.00 C169.50,335.17 169.00,336.67 169.00,337.00" fill="none" stroke="black" stroke-width="4.00" stroke-linecap="round" stroke-linejoin="round"/>
  <path d="M204.00,322.00 C204.00,319.00 203.00,309.67 204.00,304.00 C205.00,298.33 206.67,292.83 210.00,288.00 C213.33,283.17 218.67,278.00 224.00,275.00 C229.33,272.00 238.67,270.50 242.00,270.00 C245.33,269.50 243.83,269.67 244.00,272.00 C244.17,274.33 244.50,278.83 243.00,284.00 C241.50,289.17 239.00,297.50 235.00,303.00 C231.00,308.50 223.00,314.00 219.00,317.00 C215.00,320.00 213.33,320.33 211.00,321.00 C208.67,321.67 210.00,315.33 205.00,321.00 C200.00,326.67 185.00,349.33 181.00,355.00" fill="none" stroke="black" stroke-width="4.24" stroke-linecap="round" stroke-linejoin="round"/>
  <path d="M128.00,487.00 L125.00,521.00" fill="none" stroke="black" stroke-width="8.00" stroke-linecap="round" stroke-linejoin="round"/>
</svg>
